!!!!SEGMENT: pl-kk--kk-i-3--015-003_anonim--sabbativale-agnus-dei.krn
!!!cenid: 15xx:620
!!!COM: Anonim
!!!COM-rismID: pe30004985
!!!CDT:
!!!CNT:
!!!OPR: Sabbativale
!!!OTL: Agnus Dei
!!!OMV: 003
!!!PDT:
!!!AGN:
!!!SMS-siglum: PL-Kk
!!!SMS-shelfmark: Kk.I.3
!!!SMS-shelfwork: 015-003 M
!!!SMS-variant:
!!!SMS-altvar:
!!!NIFC-rismSourceID: 1001145493
!!!NIFC-rismChildID: 1001145493
!!!NIFC-islandoraID: pl-kk:1170
!!!URL-pdf-islandora: https://repozytorium.nifc.pl/islandora/object/pl-kk%3A1170/datastream/PDF/view
!!!URL-scan: https://polish.musicsources.pl/pl/lokalizacje/galeria/rekopisy/5919 @EN{Scan on Polish Music Sources Website} @PL{Skany w portalu Dziedzictwo Muzyki Polskiej w otwartym dostępie}
!!!IIIF:
!!!ONB-nifc: UWAGA: Discantus (s. 70v-71r, skan 0073), Tenor (s. 48v-49r, skan 0221), Bassus (s. 66r-v, skan 0369-0370)
!!!AIN: 1 alto 1 bass 1 tenor
!!!key:
**kern	**text	**kern	**text	**text	**kern	**text
*part3	*part3	*part2	*part2	*part2	*part1	*part1
*staff3	*staff3	*staff2	*staff2	*staff2	*staff1	*staff1
*I"Bassus	*	*I"Tenor	*	*	*I"Discantus	*
*I'B	*	*I'T	*	*	*I'A	*
*Ibass	*	*Itenor	*	*	*Ialto	*
*ICvox	*	*ICvox	*	*	*ICvox	*
*clefF3	*	*clefC3	*	*	*clefC3	*
*k[]	*	*k[]	*	*	*k[]	*
*F:	*	*F:	*	*	*F:	*
=1-	=1-	=1-	=1-	=1-	=1-	=1-
*lig	*	*lig	*	*	*	*
1F	A-	1F	A-	.	0f	A-
1D	.	1A	.	.	.	.
*Xlig	*	*Xlig	*	*	*	*
=2-	=2-	=2-	=2-	=2-	=2-	=2-
*lig	*	*lig	*	*	*	*
1C	.	1c	.	.	1e	.
1D	.	1A	.	.	1d	.
*Xlig	*	*Xlig	*	*	*	*
=3-	=3-	=3-	=3-	=3-	=3-	=3-
*lig	*	*lig	*	*	*	*
1BB	.	1d	.	.	1f	.
1C	.	1c	.	.	1e	.
*Xlig	*	*Xlig	*	*	*	*
=4-	=4-	=4-	=4-	=4-	=4-	=4-
*lig	*	*lig	*	*	*	*
1F	.	1A	.	.	1c	.
*	*	*	*	*	*custos:e	*
1D	.	1F	.	.	1d	.
*Xlig	*	*Xlig	*	*	*	*
!	!	!	!	!	!LO:LB:g=original	!
=5-	=5-	=5-	=5-	=5-	=5-	=5-
*lig	*	*	*	*	*	*
1C	-gnus	1G	.	.	1e	.
1F	.	1F	-gnus	.	1f	.
*Xlig	*	*	*	*	*	*
=6-	=6-	=6-	=6-	=6-	=6-	=6-
0F	de-	0f	de-	.	0c	-gnus
=7-	=7-	=7-	=7-	=7-	=7-	=7-
1C	.	1e	.	.	1c	de-
1G	.	0d	.	.	1B	.
=8-	=8-	=8-	=8-	=8-	=8-	=8-
*custos:F	*	*	*	*	*	*
2G/	.	.	.	.	2B/	.
!LO:LB:g=original	!	!	!	!	!	!
2F/	.	.	.	.	2A/	.
*	*	*lig	*	*	*	*
2E/	.	1g	.	.	2G/	.
2C/	.	.	.	.	1c\	.
=9-	=9-	=9-	=9-	=9-	=9-	=9-
1D	.	1f	.	.	.	.
.	.	.	.	.	2B/	.
*	*	*Xlig	*	*	*	*
*	*	*lig	*	*	*	*
1C	.	1e	.	.	2c/	.
.	.	.	.	.	1g\	.
=10-	=10-	=10-	=10-	=10-	=10-	=10-
*	*	*	*	*	*2\right	*
1G	.	1d	.	.	.	.
.	.	.	.	.	2g\	-i
*	*	*Xlig	*	*	*	*
*	*	*custos:f	*	*	*	*
0C	-i	0c	-i	.	0e	qui
=11-	=11-	=11-	=11-	=11-	=11-	=11-
.	.	.	.	.	.	.
!	!	!LO:LB:g=original	!	!	!	!
*lig	*	*lig	*	*	*	*
*	*	*	*	*	*custos:c	*
1D	qvi	1f	(qui)	.	1A	.
!	!	!	!	!	!LO:LB:g=original	!
=12-	=12-	=12-	=12-	=12-	=12-	=12-
1C	.	1e	.	.	1c	tol-
*Xlig	*	*Xlig	*	*	*	*
1D	tol-	1d	tol-	.	2A/	-lis
.	.	.	.	.	1F/	.
=13-	=13-	=13-	=13-	=13-	=13-	=13-
1D	-lis	1A	-lis	.	.	.
.	.	.	.	.	1f	Pec-
*	*	*lig	*	*	*	*
1BB	Pe-	1d	Pec-	.	.	.
.	.	.	.	.	2f\	-ca-
=14-	=14-	=14-	=14-	=14-	=14-	=14-
1C	.	1c	.	.	1e	-ta
*	*	*Xlig	*	*	*	*
1F	-ca-	1A	-ca-	.	1c	.
=15-	=15-	=15-	=15-	=15-	=15-	=15-
2D/	-ta	1F	-ta	.	1d	.
2BB/	.	.	.	.	.	.
*custos:C	*	*	*	*	*	*
*	*	*lig	*	*	*	*
1F	m(un)-	1A	m(un)-	.	2c/	mun-
.	.	.	.	.	2d/	.
!LO:LB:g=original	!	!	!	!	!	!
=16-	=16-	=16-	=16-	=16-	=16-	=16-
2C/	.	1c	.	.	2e/	-di
1c	.	.	.	.	2f\	.
*	*	*Xlig	*	*	*	*
*2\right	*	*lig	*	*	*	*
.	.	1d	.	.	1g	.
2B\	.	.	.	.	.	.
=17-	=17-	=17-	=17-	=17-	=17-	=17-
2c\	.	1c	.	.	2e\	.
2C/	.	.	.	.	1c	.
*	*	*Xlig	*	*	*	*
*	*	*lig	*	*	*	*
1D	.	1f	.	.	.	.
.	.	.	.	.	2B/	.
=18-	=18-	=18-	=18-	=18-	=18-	=18-
*	*	*	*	*	*custos:d	*
1C	.	1e	.	.	1c	.
*	*	*Xlig	*	*	*	*
!	!	!	!	!	!LO:LB:g=original	!
*	*	*lig	*	*	*	*
1G	.	1d	.	.	1d	.
=19-	=19-	=19-	=19-	=19-	=19-	=19-
1C	.	1c	.	.	1e	.
*	*	*Xlig	*	*	*	*
*lig	*	*lig	*	*	*	*
1F	.	1A	.	.	2f\	.
.	.	.	.	.	2F/	.
=20-	=20-	=20-	=20-	=20-	=20-	=20-
1D	.	1F	.	.	2A/	.
.	.	.	.	.	2B/	.
*Xlig	*	*Xlig	*	*	*	*
1C	.	1G	-di	.	1c	.
=21-	=21-	=21-	=21-	=21-	=21-	=21-
1c	-di	1F	.	.	1A	.
*	*	*custos:f	*	*	*	*
1F	mi-	1f	mi-	do-	1c	mi-
!	!	!LO:PB:g=original	!	!	!	!
=22-	=22-	=22-	=22-	=22-	=22-	=22-
1D	-se-	1f	-ſe-	-na	1d	-se-
*custos:c	*	*	*	*	*	*
2C/	-re-	1e	-re-	no-	1e	-re-
!LO:LB:g=original	!	!	!	!	!	!
1c\	-re	.	.	.	.	.
=23-	=23-	=23-	=23-	=23-	=23-	=23-
.	.	1d	-re	-bis	1g	-re
2B\	.	.	.	.	.	.
!LO:TX:t=P:global:problem=oddech jako rozdzielacz słów	!	!	!	!	!	!
1c,<	.	1e	No-	pa-	1e	No-
=24-	=24-	=24-	=24-	=24-	=24-	=24-
1C	no-	1g	.	.	2e/	.
.	.	.	.	.	1c	.
1D	.	1f	.	.	.	.
*	*	*	*	*	*custos:c	*
.	.	.	.	.	2B/	.
!	!	!	!	!	!LO:PB:g=original	!
=25-	=25-	=25-	=25-	=25-	=25-	=25-
1C	.	1e	.	.	2c/	.
.	.	.	.	.	1g	.
1G	.	1d	.	.	.	.
.	.	.	.	.	2g/	.
=26-	=26-	=26-	=26-	=26-	=26-	=26-
2C/	.	0c	.	.	2e/	.
1F	.	.	.	.	1a	.
2E/	.	.	.	.	2g\	.
=27-	=27-	=27-	=27-	=27-	=27-	=27-
*	*	*lig	*	*	*	*
1D	.	1f	.	.	2f/	.
.	.	.	.	.	2d/	.
2C/	.	1e	.	.	1g	.
1c\	.	.	.	.	.	.
*	*	*Xlig	*	*	*	*
=28-	=28-	=28-	=28-	=28-	=28-	=28-
*	*	*lig	*	*	*	*
.	.	1d	.	.	2f\	.
2B\	.	.	.	.	2d/	.
*custos:d	*	*	*	*	*	*
1A	.	1A	.	.	2e/	.
.	.	.	.	.	2f\	.
*	*	*Xlig	*	*	*	*
!LO:PB:g=original	!	!	!	!	!	!
=29-	=29-	=29-	=29-	=29-	=29-	=29-
*	*	*lig	*	*	*	*
1G	.	1d	.	.	1g	.
*	*	*	*	*	*lig	*
1C	.	1c	.	.	1e	.
*	*	*Xlig	*	*	*	*
=30-	=30-	=30-	=30-	=30-	=30-	=30-
*	*	*lig	*	*	*	*
*	*	*	*	*	*custos:d	*
1F	.	1A	.	.	1c	.
*	*	*	*	*	*Xlig	*
!	!	!	!	!	!LO:LB:g=original	!
0D	.	1F	.	.	1d	.
*	*	*Xlig	*	*	*	*
=31-	=31-	=31-	=31-	=31-	=31-	=31-
*	*	*lig	*	*	*	*
.	.	1A	.	.	1f	.
*lig	*	*	*	*	*	*
*	*	*custos:d	*	*	*	*
1C	.	1c	.	.	1e	.
*	*	*Xlig	*	*	*	*
!	!	!LO:LB:g=original	!	!	!	!
=32-	=32-	=32-	=32-	=32-	=32-	=32-
*	*	*lig	*	*	*	*
1BB	.	1d	.	.	1f	.
*Xlig	*	*	*	*	*	*
1C	.	1c	.	.	2e\	.
.	.	.	.	.	1c\	.
*	*	*Xlig	*	*	*	*
=33-	=33-	=33-	=33-	=33-	=33-	=33-
*	*	*lig	*	*	*	*
1D	.	1f	.	.	.	.
.	.	.	.	.	2B/	.
2C/	.	1e	.	.	1c	.
1c\	.	.	.	.	.	.
*	*	*Xlig	*	*	*	*
=34-	=34-	=34-	=34-	=34-	=34-	=34-
*	*	*lig	*	*	*	*
.	.	1d	.	.	1d	.
2B\	.	.	.	.	.	.
1A	.	1c	.	.	1e	.
*	*	*Xlig	*	*	*	*
=35-	=35-	=35-	=35-	=35-	=35-	=35-
*	*	*lig	*	*	*	*
1F	.	1A	.	.	2f\	.
.	.	.	.	.	2c/	.
1D	.	1F	.	.	2d/	.
.	.	.	.	.	1f\	.
*	*	*Xlig	*	*	*	*
=36-	=36-	=36-	=36-	=36-	=36-	=36-
1C	.	0G	.	.	.	.
.	.	.	.	.	2e\	-bis
*	*	*	*	*	*custos:c	*
0.F;	-bis	.	.	.	[1f;l	.
=37-	=37-	=37-	=37-	=37-	=37-	=37-
.	.	0F;l	-bis.	-cem.	0f]	.
!LO:LB:g=original	!	!	!	!	!LO:LB:g=original	!
=38||	=38||	=38||	=38||	=38||	=38||	=38||
1F	A-	1f	A-	.	1c	A-
!	!	!LO:TX:t=P:global:problem=oddech jako rozdzielacz słów	!	!	!	!
1D	-gnus	1f,<	-gnus	.	1d	-gnus
=39-	=39-	=39-	=39-	=39-	=39-	=39-
2C/	de-	1e	de-	.	1e	de-
1c	.	.	.	.	.	.
.	.	1d,<	-i	.	1g	-i
2B\	-i	.	.	.	.	.
=40-	=40-	=40-	=40-	=40-	=40-	=40-
*	*	*lig	*	*	*	*
1c	qui	1e	qvi	.	1e	.
1C	.	1g	.	.	2e/	.
.	.	.	.	.	1c\	.
*	*	*Xlig	*	*	*	*
=41-	=41-	=41-	=41-	=41-	=41-	=41-
*	*	*lig	*	*	*	*
1D	.	1f	.	.	.	.
.	.	.	.	.	2B/	.
*	*	*custos:d	*	*	*	*
1C	.	1e,<	.	.	2c/	.
.	.	.	.	.	1g\	.
*	*	*Xlig	*	*	*	*
!	!	!LO:LB:g=original	!	!	!	!
=42-	=42-	=42-	=42-	=42-	=42-	=42-
1G	tol-	1d	tol-	.	.	.
.	.	.	.	.	2g\	qvi
2C/	-lis	1c	.	.	2e/	tol-
1F\	.	.	.	.	1a\	.
=43-	=43-	=43-	=43-	=43-	=43-	=43-
.	.	1c,<	-lis	.	.	.
2E/	pec-	.	.	.	2g\	.
*	*	*lig	*	*	*	*
*	*	*	*	*	*custos:d	*
1D	.	1f	Pec-	.	2f\	.
!	!	!	!	!	!LO:LB:g=original	!
.	.	.	.	.	2d/	-lis
!LO:LB:g=original	!	!	!	!	!	!
=44-	=44-	=44-	=44-	=44-	=44-	=44-
2C/	-ca-	1e	.	.	1g	pec-
1c	-ta	.	.	.	.	.
*	*	*Xlig	*	*	*	*
.	.	1d	-ca-	.	2f\	-ca-
2B\	.	.	.	.	2d/	-ta
=45-	=45-	=45-	=45-	=45-	=45-	=45-
1A	m(un)-	1A,<	-ta	.	2e/	mu(n)-
.	.	.	.	.	2f\	.
*	*	*lig	*	*	*	*
1G	.	1d	m(un)-	.	1g	.
=46-	=46-	=46-	=46-	=46-	=46-	=46-
1C	.	1c	.	.	1e	-di
*	*	*Xlig	*	*	*	*
*	*	*lig	*	*	*	*
1F	.	1A	.	.	1d	.
=47-	=47-	=47-	=47-	=47-	=47-	=47-
0D	.	1F	.	.	1d	.
*	*	*Xlig	*	*	*	*
*	*	*lig	*	*	*	*
.	.	1A	.	.	1f	.
=48-	=48-	=48-	=48-	=48-	=48-	=48-
1C	.	1c	.	.	1e	.
*	*	*Xlig	*	*	*	*
*	*	*lig	*	*	*	*
1BB	.	1d	.	.	1f	.
=49-	=49-	=49-	=49-	=49-	=49-	=49-
1C	.	1c	.	.	2e\	.
.	.	.	.	.	1c	.
*	*	*Xlig	*	*	*	*
*	*	*lig	*	*	*	*
1D	.	1f	.	.	.	.
*	*	*	*	*	*custos:c	*
.	.	.	.	.	2B/	.
!	!	!	!	!	!LO:LB:g=original	!
=50-	=50-	=50-	=50-	=50-	=50-	=50-
2C/	.	1e	.	.	1c	.
1c	.	.	.	.	.	.
*	*	*Xlig	*	*	*	*
*	*	*lig	*	*	*	*
.	.	1d	.	.	1d	.
2B\	.	.	.	.	.	.
!LO:LB:g=original	!	!	!	!	!	!
=51-	=51-	=51-	=51-	=51-	=51-	=51-
1A	.	1c	.	.	1e	.
*	*	*Xlig	*	*	*	*
*	*	*lig	*	*	*	*
1F	.	1A	.	.	2f\	.
.	.	.	.	.	2c/	.
=52-	=52-	=52-	=52-	=52-	=52-	=52-
1D	.	1F	.	.	2d/	.
.	.	.	.	.	1f	.
*	*	*Xlig	*	*	*	*
*	*	*custos:F	*	*	*	*
1C	-di	1G	.	.	.	.
.	.	.	.	.	2e\	.
!	!	!LO:LB:g=original	!	!	!	!
=53-	=53-	=53-	=53-	=53-	=53-	=53-
1F	mi-	1F,<	-di	.	1f	.
1c	-se-	1A	mi-	.	1f	.
=54-	=54-	=54-	=54-	=54-	=54-	=54-
1c	-re-	1A	-ſe-	.	1e	.
2d\	-re	1F	-re-	.	1f	mi-
1c\	.	.	.	.	.	.
=55-	=55-	=55-	=55-	=55-	=55-	=55-
.	.	1A	-re	.	1e	-se-
2A/	.	.	.	.	.	.
1F	.	1c	No-	.	1f	-re-
=56-	=56-	=56-	=56-	=56-	=56-	=56-
1D	.	0d	.	.	1a	-re
1G	.	.	.	.	1g	No-
=57-	=57-	=57-	=57-	=57-	=57-	=57-
0C	No-	[0c;l	-bis	.	0e	.
=58-	=58-	=58-	=58-	=58-	=58-	=58-
*	*	*custos:F	*	*	*custos:f	*
0C;l	-bis	0c]	.	.	0e;<l	-bis
==	==	==	==	==	==	==
*-	*-	*-	*-	*-	*-	*-
!!!system-decoration: [(s1,s2,s3)]
!!!RDF**kern: < = below
!!!RDF**kern: l = terminal long
!!!ENC: Berenika Jozajtis
!!!END: 2022-01-03
!!!ENC: Marta Lawrence
!!!END: 2022-01-06
!!!YEC: Copyright 2022 Narodowy Instytut Fryderyka Chopina (https://polishscores.org)
!!!YEM: License CC-BY-4.0 (https://creativecommons.org/licenses/by/4.0)
